Simply-Cyan-Circles/scalable/apps/gnome-sudoku.svg

<svg xmlns="http://www.w3.org/2000/svg" width="48" height="48" viewBox="0 0 12.7 12.7"><path fill="#5beedc" d="M6.34.07a6.29 6.29 0 0 0-6.29 6.3 6.29 6.29 0 0 0 6.3 6.28 6.29 6.29 0 0 0 6.28-6.29A6.29 6.29 0 0 0 6.34.07zm-.03.94v2.03H3.3V1.97v-.03a5.4 5.4 0 0 1 3.01-.93zm.24.01a5.4 5.4 0 0 1 2.92 1v1.02H6.55V1.02zm-3.49 1.1v.92h-.95a5.4 5.4 0 0 1 .95-.93zm6.65.08a5.4 5.4 0 0 1 .84.84H9.7V2.2zM1.93 3.27h1.13v2.97H.93a5.4 5.4 0 0 1 1-2.96zm1.37 0H6.3v2.97H3.3V3.28zm3.25 0h2.92v2.97H6.55V3.28zm3.16 0h1a5.4 5.4 0 0 1 1.02 2.97H9.7V3.28zm-4.8.44l-.86 1.3v.27h.93v.49h.28v-.49h.3v-.23h-.3V3.71h-.35zm.07.24v1.1h-.7l.7-1.1zM.92 6.48h2.14V9.4H1.82a5.4 5.4 0 0 1-.9-2.92zm2.38 0H6.3V9.4H3.3V6.48zm3.25 0h2.92V9.4H6.55V6.48zm3.16 0h2.02a5.4 5.4 0 0 1-.9 2.92H9.7V6.48zm-1.8.4a1.75 1.75 0 0 0-.56.08v.25a2.28 2.28 0 0 1 .53-.1.52.52 0 0 1 .32.09.28.28 0 0 1 .12.24.28.28 0 0 1-.11.24.52.52 0 0 1-.32.08h-.25v.23h.24c.15 0 .27.03.36.1a.34.34 0 0 1 .12.28.35.35 0 0 1-.13.3c-.1.07-.23.1-.4.1-.1 0-.2 0-.29-.03a.96.96 0 0 1-.25-.1v.27a1.92 1.92 0 0 0 .55.1c.26 0 .45-.05.6-.17a.57.57 0 0 0 .2-.47.5.5 0 0 0-.11-.33.53.53 0 0 0-.31-.18.51.51 0 0 0 .28-.16.44.44 0 0 0 .1-.29.47.47 0 0 0-.19-.39.8.8 0 0 0-.5-.14zM1.99 9.64h1.07v1.08A5.4 5.4 0 0 1 2 9.64zm1.31 0h3.01v2.18a5.4 5.4 0 0 1-3.01-.92V9.63zm3.25 0h2.92v1.17a5.4 5.4 0 0 1-2.92 1V9.65zm3.16 0h.95a5.4 5.4 0 0 1-.95 1v-1z"/></svg>

<?xml version="1.0" encoding="UTF-8" standalone="no"?>
<svg
   xmlns:dc="http://purl.org/dc/elements/1.1/"
   xmlns:cc="http://creativecommons.org/ns#"
   xmlns:rdf="http://www.w3.org/1999/02/22-rdf-syntax-ns#"
   xmlns:svg="http://www.w3.org/2000/svg"
   xmlns="http://www.w3.org/2000/svg"
   xmlns:sodipodi="http://sodipodi.sourceforge.net/DTD/sodipodi-0.dtd"
   xmlns:inkscape="http://www.inkscape.org/namespaces/inkscape"
   width="48"
   height="48"
   viewBox="0 0 12.7 12.7"
   version="1.1"
   id="svg4"
   sodipodi:docname="gnome-sudoku.svg"
   inkscape:version="0.92.4 (5da689c313, 2019-01-14)">
  <metadata
     id="metadata10">
    <rdf:RDF>
      <cc:Work
         rdf:about="">
        <dc:format>image/svg+xml</dc:format>
        <dc:type
           rdf:resource="http://purl.org/dc/dcmitype/StillImage" />
        <dc:title></dc:title>
      </cc:Work>
    </rdf:RDF>
  </metadata>
  <defs
     id="defs8" />
  <sodipodi:namedview
     pagecolor="#ffffff"
     bordercolor="#666666"
     borderopacity="1"
     objecttolerance="10"
     gridtolerance="10"
     guidetolerance="10"
     inkscape:pageopacity="0"
     inkscape:pageshadow="2"
     inkscape:window-width="1087"
     inkscape:window-height="480"
     id="namedview6"
     showgrid="false"
     inkscape:zoom="4.9166667"
     inkscape:cx="2.1355932"
     inkscape:cy="24"
     inkscape:window-x="0"
     inkscape:window-y="25"
     inkscape:window-maximized="0"
     inkscape:current-layer="svg4" />
  <path
     d="M 6.34,0.07 A 6.29,6.29 0 0 0 0.05,6.37 6.29,6.29 0 0 0 6.35,12.65 6.29,6.29 0 0 0 12.63,6.36 6.29,6.29 0 0 0 6.34,0.07 Z M 6.31,1.01 V 3.04 H 3.3 V 1.97 1.94 A 5.4,5.4 0 0 1 6.31,1.01 Z m 0.24,0.01 a 5.4,5.4 0 0 1 2.92,1 V 3.04 H 6.55 Z M 3.06,2.12 V 3.04 H 2.11 A 5.4,5.4 0 0 1 3.06,2.11 Z M 9.71,2.2 a 5.4,5.4 0 0 1 0.84,0.84 H 9.7 V 2.2 Z M 1.93,3.27 H 3.06 V 6.24 H 0.93 a 5.4,5.4 0 0 1 1,-2.96 z m 1.37,0 h 3 v 2.97 h -3 V 3.28 Z m 3.25,0 H 9.47 V 6.24 H 6.55 V 3.28 Z m 3.16,0 h 1 a 5.4,5.4 0 0 1 1.02,2.97 H 9.7 V 3.28 Z M 4.91,3.71 4.05,5.01 V 5.28 H 4.98 V 5.77 H 5.26 V 5.28 h 0.3 V 5.05 H 5.26 V 3.71 Z m 0.07,0.24 v 1.1 H 4.28 Z M 0.92,6.48 H 3.06 V 9.4 H 1.82 A 5.4,5.4 0 0 1 0.92,6.48 Z m 2.38,0 h 3 V 9.4 h -3 z m 3.25,0 H 9.47 V 9.4 H 6.55 Z m 3.16,0 h 2.02 A 5.4,5.4 0 0 1 10.83,9.4 H 9.7 V 6.48 Z m -1.8,0.4 A 1.75,1.75 0 0 0 7.35,6.96 V 7.21 A 2.28,2.28 0 0 1 7.88,7.11 0.52,0.52 0 0 1 8.2,7.2 0.28,0.28 0 0 1 8.32,7.44 0.28,0.28 0 0 1 8.21,7.68 0.52,0.52 0 0 1 7.89,7.76 H 7.64 v 0.23 h 0.24 c 0.15,0 0.27,0.03 0.36,0.1 a 0.34,0.34 0 0 1 0.12,0.28 0.35,0.35 0 0 1 -0.13,0.3 c -0.1,0.07 -0.23,0.1 -0.4,0.1 -0.1,0 -0.2,0 -0.29,-0.03 A 0.96,0.96 0 0 1 7.29,8.64 v 0.27 a 1.92,1.92 0 0 0 0.55,0.1 c 0.26,0 0.45,-0.05 0.6,-0.17 A 0.57,0.57 0 0 0 8.64,8.37 0.5,0.5 0 0 0 8.53,8.04 0.53,0.53 0 0 0 8.22,7.86 0.51,0.51 0 0 0 8.5,7.7 0.44,0.44 0 0 0 8.6,7.41 0.47,0.47 0 0 0 8.41,7.02 0.8,0.8 0 0 0 7.91,6.88 Z M 1.99,9.64 h 1.07 v 1.08 A 5.4,5.4 0 0 1 2,9.64 Z m 1.31,0 h 3.01 v 2.18 A 5.4,5.4 0 0 1 3.3,10.9 V 9.63 Z m 3.25,0 h 2.92 v 1.17 a 5.4,5.4 0 0 1 -2.92,1 V 9.65 Z m 3.16,0 h 0.95 a 5.4,5.4 0 0 1 -0.95,1 z"
     id="path2"
     inkscape:connector-curvature="0"
     style="fill:#5beedc" />
</svg>
